X:1
T:Drink Old England Dry
M:4/4
L:1/4
K:G
 D| G2 G G| G- D B, D| G2 G3/2 A/2| G3 A| B2 B B| B2 A G| A A A3/2 B/2|\
 A3 B/2c/2| d- c B c| d c B B/2A/2| G A G E| D E F D| G D B, D| G B d c|\
 B2 A2|
M:3/2
 G4 B2| A4 B- A|
M:4/4
 G3/2 A/2 G E| D- E- F D| G D B, D| G B d c| B2 A2| G3||
